!!!COM: Paul Hindemith
!!!OTL: [T640_Hin-w48p7s1-3]
**kern	**dynam	**kern	**dynam
*grp:A	*grp:A	*grp:B	*grp:B
*part2	*part1/2	*part1	*part1/2
*staff2	*	*staff1	*
*I"Violoncello	*	*I"Viola	*
*I'Vc.	*	*I'Vla.	*
*clefG2	*	*clefC3	*
*k[]	*	*k[]	*
*C:	*	*C:	*
*M3/8	*	*M3/8	*
=327	=327	=327	=327
!	!	!LO:TX:t=[[eighth]=154]	!
!	!	!LO:TX:a:i:t=[pizz.]	!
!	!LO:DY:ed=brack	!	!LO:DY:ed=brack
8gL]	p	8ryy	4ryy
(16cL	.	8ryy	.
16d)	.	.	.
(16e	<	8ryy	4ryy
16gJJ)	.	.	.
=328	=328	=328	=328
*M2/8	*	*M2/8	*
(16aLL	.	4ryy	.
16g)	.	.	.
(16a	.	.	.
16ccJJ)	.	.	.
=329	=329	=329	=329
!	!	!LO:TX:a:i:t=arco	!
4cc#X	.	16ryy	.
.	.	16ryy	.
.	.	8ryy	.
=330	=330	=330	=330
*M3/8	*	*M3/8	*
(>8qdd/	.	.	.
4cc#X)	.	8ryy	.
.	.	8ryy	.
(>8qdd#X/	.	.	.
[8cc#)	.	8ryy	.
=331	=331	=331	=331
.	[	8ryy	4ryy
8cc#]	.	8ryy	.
(>8qee/	.	.	.
4cc#X)	.	8ryy	.
.	.	8ryy	.
=332	=332	=332	=332
*M2/4	*	*M2/4	*
(>8qff#X/	.	.	.
4cc#X^)	mf	8ryy	4ryy
!	!	!LO:TX:a:i:t=pizz.	!
.	.	8ryy	.
4b^	.	8ryy	.
.	.	8ryy	.
!!linebreak:original
=333	=333	=333	=333
*M3/8	*	*M3/8	*
(8b-XL	.	8ryy	.
8f)	.	8ryy	.
8a-XJ	.	8ryy	.
=334	=334	=334	=334
(8qa-X/	.	.	.
8gL	.	8ryy	.
8f)	.	8ryy	.
8e-XJ	.	8ryy	.
=335	=335	=335	=335
8r	.	8ryy	.
(16dLL	.	8ryy	.
16f)	.	.	.
(16b-X	.	8ryy	.
16ccJJ)	.	.	.
=336	=336	=336	=336
*M2/4	*	*M2/4	*
4cc#X^	.	8ryy	.
.	.	8ryy	.
4b^	.	8ryy	.
.	.	8ryy	.
=337	=337	=337	=337
*M3/8	*	*M3/8	*
(8b-XL	.	8ryy	.
8f)	.	8ryy	.
8a-XJ	>	8ryy	4ryy
=338	=338	=338	=338
(8qa-X/	.	.	.
8gL	.	8ryy	.
8f)	.	8ryy	.
8e-XJ	.	8ryy	.
!!linebreak:original
=339	=339	=339	=339
8r	.	8ryy	.
(16dLL	.	8ryy	.
16f)	.	.	.
(16b-X	.	8ryy	.
16ccJJ)	.	.	.
=340	=340	=340	=340
*M2/4	*	*M2/4	*
4cc#X^	.	8ryy	.
.	.	8ryy	.
4b^	.	8ryy	.
.	.	8ryy	.
=341	=341	=341	=341
*M3/8	*	*M3/8	*
(8b-XL	.	8ryy	.
8f)	.	8ryy	.
8a-XJ	]	8ryy	4ryy
=342	=342	=342	=342
(8qa-X/	.	.	.
8gL	.	8ryy	.
8f)	.	8ryy	.
8e-XJ	<	8ryy	4ryy
=343	=343	=343	=343
8r	.	8ryy	.
(16dLL	.	8ryy	.
16f)	.	.	.
(16b-X	.	8ryy	.
16ccJJ)	[	.	4ryy
=344	=344	=344	=344
*M2/8	*	*M2/8	*
!	!	!LO:TX:a:i:t=arco	!
(16cc#XLL	f	16ryy	4ryy
16dd#XJ)	.	16ryy	.
8eeJ	.	8ryy	.
=	=	=	=
*-	*-	*-	*-
!!!system-decoration: [(s1,s2)]
!!!RDF**kern: > = above
!!!RDF**kern: < = below
!!!EED: Daniel Wright
!!!EEV: 2021/08/27
